X:67
%
T:The Masons Apron
C:Traditional
L:1/8
M:C
Q:1/4=80
K:A treble
%
|: "A" aA AA AB AF | EF AB cA Bc | "D" dB BB Bc BA | Bc de fe fg |
"A" aA AA AB AF | EF AB cA Bc | "D" dc de fg af | "E" ec Bc A4 :|
|: "A" c2 ec fc ec  | c2 ec fc ec | "D" d2 fd gd fd | dd fd gd fd |
"A" c2 ec fc ec | ac ec fc ec | "D" dc de fg af | "E" ec Bc A4 :|

